SDGP6/SDGP6/Assets.xcassets/ic_activity_gr.imageset/ic_graph_gr.svg

<?xml version="1.0" encoding="UTF-8"?>
<svg xmlns="http://www.w3.org/2000/svg" xmlns:xlink="http://www.w3.org/1999/xlink" width="24px" height="24px" viewBox="0 0 24 24" version="1.1">
<g id="surface1">
<path style="fill-rule:nonzero;fill:rgb(63.137257%,63.137257%,63.137257%);fill-opacity:1;stroke-width:1;stroke-linecap:butt;stroke-linejoin:miter;stroke:rgb(63.137257%,63.137257%,63.137257%);stroke-opacity:1;stroke-miterlimit:4;" d="M 204.109415 202.318377 L 7.508581 202.318377 C 3.340974 202.318377 0 198.94296 0 194.809796 L 0 16.8082 C 0 12.675036 3.340974 9.299619 7.508581 9.299619 C 11.641745 9.299619 15.017162 12.675036 15.017162 16.8082 L 15.017162 187.301215 L 204.109415 187.301215 C 208.277022 187.301215 211.617996 190.676632 211.617996 194.809796 C 211.617996 198.94296 208.277022 202.318377 204.109415 202.318377 Z M 188.851151 93.753936 C 186.922341 92.341772 184.442443 91.928456 182.13476 92.651759 L 134.258944 107.910023 L 117.967389 59.965321 C 117.209642 57.79541 115.521933 56.073258 113.352022 55.315511 C 111.182111 54.523322 108.805542 54.798866 106.842289 56.038815 L 78.771217 73.81142 L 43.191564 28.27773 C 41.228311 25.728946 37.887337 24.730098 34.85635 25.797832 C 31.825363 26.831123 29.793224 29.689895 29.793224 32.893097 L 29.793224 166.738724 C 29.793224 170.871888 33.134198 174.247305 37.301805 174.247305 L 184.442443 174.247305 C 188.575607 174.247305 191.916581 170.871888 191.916581 166.738724 L 191.916581 99.81591 C 191.916581 97.404898 190.779961 95.166101 188.851151 93.753936 Z M 188.851151 93.753936 " transform="matrix(0.113412,0,0,0.113412,0,0)"/>
</g>
</svg>

<!DOCTYPE svg PUBLIC "-//W3C//DTD SVG 1.1//EN" "http://www.w3.org/Graphics/SVG/1.1/DTD/svg11.dtd">
<!-- Uploaded to: SVG Repo, www.svgrepo.com, Transformed by: SVG Repo Mixer Tools -->
<svg fill="#a1a1a1" height="64px" width="64px" version="1.1" id="Capa_1" xmlns="http://www.w3.org/2000/svg" xmlns:xlink="http://www.w3.org/1999/xlink" viewBox="0 0 211.618 211.618" xml:space="preserve" stroke="#a1a1a1">
<g id="SVGRepo_bgCarrier" stroke-width="0"/>
<g id="SVGRepo_tracerCarrier" stroke-linecap="round" stroke-linejoin="round"/>
<g id="SVGRepo_iconCarrier"> <path d="M204.118,202.309H7.5c-4.142,0-7.5-3.357-7.5-7.5v-178c0-4.143,3.358-7.5,7.5-7.5s7.5,3.357,7.5,7.5v170.5h189.118 c4.142,0,7.5,3.357,7.5,7.5S208.26,202.309,204.118,202.309z M188.854,93.754c-1.932-1.413-4.424-1.819-6.703-1.092l-47.875,15.254 l-16.317-47.958c-0.74-2.176-2.437-3.892-4.604-4.656c-2.166-0.767-4.565-0.495-6.507,0.735L78.768,73.809L43.2,28.261 c-1.971-2.523-5.325-3.519-8.352-2.476c-3.027,1.042-5.059,3.891-5.059,7.092v133.863c0,4.143,3.358,7.5,7.5,7.5h147.139 c4.142,0,7.5-3.357,7.5-7.5V99.809C191.928,97.416,190.786,95.167,188.854,93.754z"/> </g>
</svg>
